UnityPomodoro/Assets/AdrianMiasik/SVGs/icon-information-bubble.svg

<svg fill="#fff" height="100" viewBox="0 0 100 100" width="100" xmlns="http://www.w3.org/2000/svg"><path d="m50 0a50 50 0 1 0 50 50 50 50 0 0 0 -50-50zm-5.51 20.89a8 8 0 0 1 1.79-2.56 8.72 8.72 0 0 1 2.6-1.74 7.73 7.73 0 0 1 3.12-.65 8 8 0 0 1 3.21.65 8.24 8.24 0 0 1 2.6 1.74 8.41 8.41 0 0 1 1.74 2.56 7.62 7.62 0 0 1 .65 3.17 7.87 7.87 0 0 1 -.65 3.21 8.78 8.78 0 0 1 -1.74 2.64 8 8 0 0 1 -2.6 1.78 7.87 7.87 0 0 1 -3.21.65 7.57 7.57 0 0 1 -3.16-.65 8.51 8.51 0 0 1 -4.39-4.42 8 8 0 0 1 -.65-3.21 7.78 7.78 0 0 1 .69-3.17zm21.93 57.66h-28.67v-6.66q6.9 0 6.9-3.64v-20.81q0-3.73-6.9-3.73v-6.5h21.76v31c-.11 2.44 2.2 3.65 6.91 3.65z"/></svg>

<svg height='100px' width='100px'  fill="#FFFFFF" xmlns="http://www.w3.org/2000/svg" viewBox="0 0 100 100" x="0px" y="0px"><title>Asset 13</title><g data-name="Layer 2"><g data-name="Layer 2"><g><path d="M50,0a50,50,0,1,0,50,50A50,50,0,0,0,50,0ZM44.49,20.89a8,8,0,0,1,1.79-2.56,8.72,8.72,0,0,1,2.6-1.74A7.73,7.73,0,0,1,52,15.94a8,8,0,0,1,3.21.65,8.24,8.24,0,0,1,2.6,1.74,8.41,8.41,0,0,1,1.74,2.56,7.62,7.62,0,0,1,.65,3.17,7.87,7.87,0,0,1-.65,3.21,8.78,8.78,0,0,1-1.74,2.64,8,8,0,0,1-2.6,1.78,7.87,7.87,0,0,1-3.21.65,7.57,7.57,0,0,1-3.16-.65,8.51,8.51,0,0,1-4.39-4.42,8,8,0,0,1-.65-3.21A7.78,7.78,0,0,1,44.49,20.89ZM66.42,78.55H37.75V71.89q6.9,0,6.9-3.64V47.44q0-3.73-6.9-3.73v-6.5H59.51v31c-.11,2.44,2.2,3.65,6.91,3.65Z"></path></g></g></g></svg>
